X: 1223
T: Annie Shaw's Tune
B: australian traditional tunes wiki
M:3/4
L:1/4
R: Waltz
Q: 1/4=100
K:D
V:1 
|:"D"f3-|f e>d|A3|z d f|a2 a|a b z/2 f/2|"A"a3|"G"g3|
B3-|B g f|"D"A3-|A e d|"A"c B A|1 B3/2 c/2 B|B3|A3:|2B2 c|"D"d3-|d2z||
|"D"f f/2f/2 f|"A7"e a2|"D"f f/2f/2 f|"A7"e a2|"D"f3/2 f/2 f|"G"g2 e|"D"d3|"A7"c B A|
"D"f f/2f/2 f|"A7"e a2|"D"f f/2f/2 f|"A"eb2|a f g|"D"f3/2 f/2 "A7"e|"D"d3-|d3||
"D"A3|"G"B3|"A7"c Bc|"D"d3|"G"g3|"D"f3|"Em"eBd|"A7"cBA|
"D"A3|"G"B3|"A7"cBc|"D"d2f|"Em"e2e|"G"B2B|"A7"cBc|"D"d3||
% abcbook-tune_id 6342d53a14f00d634f376b57


% abcbook-boost 0
% abcbook-tablature 
% abcbook-transpose 
% abcbook-lastupdated 1665324354847
% abcbook-soundfonts 
% abcbook-repeats 1
% NFF Book 2006

